X:1
T:There Is a Fountain Filled with Blood
T:There Is a Fountain Filled with Blood
%%score ( 1 2 ) ( 3 4 )
L:1/8
M:4/4
K:Bb
V:1 treble nm="Piano" snm="Pno."
V:2 treble 
V:3 bass nm="Piano" snm="Pno."
V:4 bass 
V:1
 B,D | [DF]3 [EG] [DF]2 [FB]2 | [EB]3 [EG] [DF]2 B,D | [DF]3 [DF] [EG][DF] DB, | [A,C]6 | B,D | %6
w: 1~There _|is a foun- tain|filled with blood Drawn _|from Im- ma- * nuel's _|veins;|And _|
w: 2~The _|dy- ing thief re-|joiced to see That _|foun- tain in _ his _|day;|And _|
w: 3~Dear _|dy- ing Lamb, Thy|pre- cious blood Shall _|ne- ver lose _ its _|pow'r,|Till _|
w: 4~E'er _|since by faith I|saw the stream Thy _|flo- wing wounds _ sup- *|ply,|Re- *|
w: 5~When _|this poor lis- ping,|stamm'- ring tongue Lies _|si- lent in _ the _|grave,|Then _|
 [DF]3 [EG] [DF]2 [FB]2 | [EB]3 [EG] [DF]2 [DB][Ec] | [Fd]3 [DB] [Ec]2 [Fd]2 | [DB]6 | [DB][Ec] | %11
w: sin- ners, plunged be-|neath that flood, Lose _|all their guil- ty|stains:|Lose _|
w: there may I, though|vile as he, Wash _|all my sins a-|way:|Wash _|
w: all the ran- somed|Church of God Be _|saved, to sin no|more:|Be _|
w: deem- ing love has|been my theme, And _|shall be till I|die:|And _|
w: in a no- bler,|swee- ter song I'll _|sing Thy pow'r to|save:|I'll _|
 [Fd]3 [DB] [Ec]2 [Fd]2 | (([GB]3 [EG] [GB]2)) [EG]2 | [DF]3 [DF] [EG][DF] DB, | [A,C]6 B,D | %15
w: all their guil- ty|stains, _ _ Lose|all their guil- * ty _|stains; And _|
w: all my sins a-|way, _ _ Wash|all my sins _ a- *|way; And _|
w: saved, to sin no|more, _ _ Be|saved, to sin _ no _|more; Till _|
w: shall be till I|die, _ _ And|shall be till _ I _|die; Re- *|
w: sing Thy pow'r to|save, _ _ I'll|sing Thy pow'r _ to _|save; then _|
 [DF]3 [EG] [DF]2 [FB]2 | [EB]3 [EG] [DF]2 [DB][Ec] | [Fd]3 [DB] [Ec]2 [Fd]2 | [DB]6 |] %19
w: sin- ners, plunged be-|neath that flood, Lose _|all their guil- ty|stains.|
w: there may I, though|vile as he, Wash _|all my sins a-|way.|
w: all the ran- somed|Church of God Be _|saved to sin no|more.|
w: deem- ing love has|been my theme, And _|shall be till I|die.|
w: in a no- bler,|swee- ter song I'll _|sing Thy pow'r to|save.|
 [EB]4 [DB]4 |] %20
w: A- men.|
w: |
w: |
w: |
w: |
V:2
 B,2 | x8 | x6 B,2 | x4 x2 B,2 | x6 | B,2 | x8 | x8 | x8 | x6 | x2 | x8 | x8 | x4 x2 B,2 | x6 B,2 | %15
 x8 | x8 | x8 | x6 |] x8 |] %20
V:3
 D,F, | [B,,B,]3 [B,,B,] [B,,B,]2 [D,F,]2 | [E,G,]3 [E,B,] [B,,B,]2 D,F, | %3
 [B,,B,]3 [B,,B,] [B,,B,]2 F,2 | F,6 | D,F, | [B,,B,]3 [B,,B,] [B,,B,]2 [D,F,]2 | %7
 [E,G,]3 [E,B,] [B,,B,]2 [B,,B,]2 | [B,,B,]3 [B,,B,] [F,A,]2 F,2 | [B,,F,]6 | B,2 | %11
 B,3 B, [F,A,]2 [B,,B,]2 | [E,B,]6 [E,B,]2 | [B,,B,]3 [B,,B,] [B,,B,]2 F,2 | F,6 D,F, | %15
 [B,,B,]3 [B,,B,] [B,,B,]2 [D,F,]2 | [E,G,]3 [E,B,] [B,,B,]2 [B,,B,]2 | %17
 [B,,B,]3 [B,,B,] [F,A,]2 F,2 | [B,,F,]6 |] [E,G,]4 [B,,F,]4 |] %20
V:4
 B,,2 | x8 | x6 B,,2 | x6 B,,D, | F,6 | B,,2 | x8 | x8 | x6 F,2 | x6 | B,2 | B,3 B, x4 | x8 | %13
 x6 B,,D, | F,6 B,,2 | x8 | x8 | x6 F,2 | x6 |] x8 |] %20

